X: 04026
T: the DRUMMER'S REEL
C: Bob McQuillen 14 May 79
B: Bob's Note Book 04 #26
R: reel
Z: 2020 John Chambers <jc:trillian.mit.edu>
M: C
L: 1/8
K: Am
cA \
| E2A2 A2cd | e2g2 g2ag | e2c2 dcde | c2A2 A2cA |\
| E2A2 A2cd | eg2a g2ag | edce d2e2 | A6 :|
|: g2 \
| a2aa a2e2 | fefg a2gf | e2dc B2cd | eA2G A3e |\
| a2aa a2e2 | dcde d2cd | e2dc B2G2 | A6 :|
%%begintext align
%% Can't you hear the
%% bodhran in this tune?
%% I sure can! Boom diddy Boom!
%%endtext
